rospo-icon-theme-classic-common/24x24/devices/blueman-smart-phone.svg

<svg height="24" width="24" xmlns="http://www.w3.org/2000/svg"><rect height="15" opacity=".2" rx="1" transform="matrix(0 -1 -1 0 0 0)" width="20" x="-22.5" y="-19"/><rect fill="#8e8e8e" height="15" rx="1" transform="matrix(0 -1 -1 0 0 0)" width="20" x="-22" y="-19"/><rect height="1" opacity=".5" rx=".5" width="4" x="9.5" y="3"/><rect height="16" opacity=".6" rx="1" width="13" x="5" y="4"/><path d="m9.297 5.8008c-.029-.0069-.059-.0021-.084.0156-.051.033-.061.1057-.022.1602l.647.9218c-1.028.469-1.75 1.5626-1.842 2.6016h7c-.092-1.0385-.811-2.1342-1.838-2.6016l.647-.9218c.039-.0545.027-.1252-.022-.1602-.051-.035-.123-.0174-.162.0371l-.67.957c-.443-.172-.936-.2675-1.453-.2675-.518 0-1.01.0955-1.453.2675l-.672-.957c-.02-.0272-.047-.0458-.076-.0527zm.724 1.9902c.215 0 .387.1699.387.3789s-.174.3809-.387.3809c-.215 0-.388-.1699-.388-.3809 0-.209.174-.3789.388-.3789zm3 0c .213 0 .387.1699.387.3789s-.174.3809-.387.3809c-.215 0-.388-.1699-.388-.3809 0-.209.174-.3789.388-.3789zm-5.023 2.709v5.797c0 .344.16.703.5.703h1.498v1.687c0 .45 0 .813.5.813s.502-.363.502-.813v-1.687h1v1.687c0 .45-.039.813.498.813.5 0 .5-.25.5-.813v-1.687h1.504c.338 0 .5-.36.5-.703v-5.797zm-1.479.002c-.522-.001-.523.377-.523.844v3.308c0 .467.001.849.523.848.478-.001.477-.381.477-.848v-3.308c0-.467.001-.845-.477-.844zm9.956 0c-.479-.001-.479.377-.479.844v3.308c0 .467 0 .849.479.848.521-.001.521-.381.521-.848v-3.308c0-.467 0-.845-.521-.844z" opacity=".2"/><path d="m9.297 5.3008c-.029-.0069-.059-.0021-.084.0156-.051.033-.061.1057-.022.1602l.647.9218c-1.028.469-1.75 1.5626-1.842 2.6016h7c-.092-1.0385-.811-2.1342-1.838-2.6016l.647-.9218c.039-.0545.027-.1252-.022-.1602-.051-.035-.123-.0174-.162.0371l-.67.957c-.443-.172-.936-.2675-1.453-.2675-.518 0-1.01.0955-1.453.2675l-.672-.957c-.02-.0272-.047-.0458-.076-.0527zm.724 1.9902c.215 0 .387.1699.387.3789s-.174.3809-.387.3809c-.215 0-.388-.1699-.388-.3809 0-.209.174-.3789.388-.3789zm3 0c .213 0 .387.1699.387.3789s-.174.3809-.387.3809c-.215 0-.388-.1699-.388-.3809 0-.209.174-.3789.388-.3789zm-5.023 2.709v5.797c0 .344.16.703.5.703h1.498v1.687c0 .45 0 .813.5.813s.502-.363.502-.813v-1.687h1v1.687c0 .45-.039.813.498.813.5 0 .5-.25.5-.813v-1.687h1.504c.338 0 .5-.36.5-.703v-5.797zm-1.479.002c-.522-.001-.523.377-.523.844v3.308c0 .467.001.849.523.848.478-.001.477-.381.477-.848v-3.308c0-.467.001-.845-.477-.844zm9.956 0c-.479-.001-.479.377-.479.844v3.308c0 .467 0 .849.479.848.521-.001.521-.381.521-.848v-3.308c0-.467 0-.845-.521-.844z" fill="#a4ca39"/><path d="m5 2c-.554 0-1 .446-1 1v .5c0-.554.446-1 1-1h13c .554 0 1 .446 1 1v-.5c0-.554-.446-1-1-1z" fill="#fff" opacity=".2"/></svg>

<svg xmlns="http://www.w3.org/2000/svg" width="24" height="24" version="1">
 <rect style="opacity:0.2" width="20" height="15" x="-22.5" y="-19" rx="1" ry="1" transform="matrix(0,-1,-1,0,0,0)"/>
 <rect style="fill:#8e8e8e" width="20" height="15" x="-22" y="-19" rx="1" ry="1" transform="matrix(0,-1,-1,0,0,0)"/>
 <rect style="opacity:0.5" width="4" height="1" x="9.5" y="3" rx=".5" ry=".5"/>
 <rect style="opacity:0.6" width="13" height="16" x="5" y="4" rx="1" ry="1"/>
 <path style="opacity:0.2" d="M 9.297,5.8008 C 9.268,5.7939 9.238,5.7987 9.213,5.8164 9.162,5.8494 9.152,5.9221 9.191,5.9766 L 9.838,6.8984 C 8.81,7.3674 8.088,8.461 7.996,9.5 H 14.996 C 14.904,8.4615 14.185,7.3658 13.158,6.8984 L 13.805,5.9766 C 13.844,5.9221 13.832,5.8514 13.783,5.8164 13.732,5.7814 13.66,5.799 13.621,5.8535 L 12.951,6.8105 C 12.508,6.6385 12.015,6.543 11.498,6.543 10.98,6.543 10.488,6.6385 10.045,6.8105 L 9.373,5.8535 C 9.353,5.8263 9.326,5.8077 9.297,5.8008 Z M 10.021,7.791 C 10.236,7.791 10.408,7.9609 10.408,8.1699 10.408,8.3789 10.234,8.5508 10.021,8.5508 9.806,8.5508 9.633,8.3809 9.633,8.1699 9.633,7.9609 9.807,7.791 10.021,7.791 Z M 13.021,7.791 C 13.234,7.791 13.408,7.9609 13.408,8.1699 13.408,8.3789 13.234,8.5508 13.021,8.5508 12.806,8.5508 12.633,8.3809 12.633,8.1699 12.633,7.9609 12.807,7.791 13.021,7.791 Z M 7.998,10.5 V 16.297 C 7.998,16.641 8.158,17 8.498,17 H 9.996 V 18.687 C 9.996,19.137 9.996,19.5 10.496,19.5 10.996,19.5 10.998,19.137 10.998,18.687 V 17 H 11.998 V 18.687 C 11.998,19.137 11.959,19.5 12.496,19.5 12.996,19.5 12.996,19.25 12.996,18.687 V 17 H 14.5 C 14.838,17 15,16.64 15,16.297 V 10.5 Z M 6.519,10.502 C 5.997,10.501 5.996,10.879 5.996,11.346 V 14.654 C 5.996,15.121 5.997,15.503 6.519,15.502 6.997,15.501 6.996,15.121 6.996,14.654 V 11.346 C 6.996,10.879 6.997,10.501 6.519,10.502 Z M 16.475,10.502 C 15.996,10.501 15.996,10.879 15.996,11.346 V 14.654 C 15.996,15.121 15.996,15.503 16.475,15.502 16.996,15.501 16.996,15.121 16.996,14.654 V 11.346 C 16.996,10.879 16.996,10.501 16.475,10.502 Z"/>
 <path style="fill:#a4ca39" d="M 9.297,5.3008 C 9.268,5.2939 9.238,5.2987 9.213,5.3164 9.162,5.3494 9.152,5.4221 9.191,5.4766 L 9.838,6.3984 C 8.81,6.8674 8.088,7.961 7.996,9 H 14.996 C 14.904,7.9615 14.185,6.8658 13.158,6.3984 L 13.805,5.4766 C 13.844,5.4221 13.832,5.3514 13.783,5.3164 13.732,5.2814 13.66,5.299 13.621,5.3535 L 12.951,6.3105 C 12.508,6.1385 12.015,6.043 11.498,6.043 10.98,6.043 10.488,6.1385 10.045,6.3105 L 9.373,5.3535 C 9.353,5.3263 9.326,5.3077 9.297,5.3008 Z M 10.021,7.291 C 10.236,7.291 10.408,7.4609 10.408,7.6699 10.408,7.8789 10.234,8.0508 10.021,8.0508 9.806,8.0508 9.633,7.8809 9.633,7.6699 9.633,7.4609 9.807,7.291 10.021,7.291 Z M 13.021,7.291 C 13.234,7.291 13.408,7.4609 13.408,7.6699 13.408,7.8789 13.234,8.0508 13.021,8.0508 12.806,8.0508 12.633,7.8809 12.633,7.6699 12.633,7.4609 12.807,7.291 13.021,7.291 Z M 7.998,10 V 15.797 C 7.998,16.141 8.158,16.5 8.498,16.5 H 9.996 V 18.187 C 9.996,18.637 9.996,19 10.496,19 10.996,19 10.998,18.637 10.998,18.187 V 16.5 H 11.998 V 18.187 C 11.998,18.637 11.959,19 12.496,19 12.996,19 12.996,18.75 12.996,18.187 V 16.5 H 14.5 C 14.838,16.5 15,16.14 15,15.797 V 10 Z M 6.519,10.002 C 5.997,10.001 5.996,10.379 5.996,10.846 V 14.154 C 5.996,14.621 5.997,15.003 6.519,15.002 6.997,15.001 6.996,14.621 6.996,14.154 V 10.846 C 6.996,10.379 6.997,10.001 6.519,10.002 Z M 16.475,10.002 C 15.996,10.001 15.996,10.379 15.996,10.846 V 14.154 C 15.996,14.621 15.996,15.003 16.475,15.002 16.996,15.001 16.996,14.621 16.996,14.154 V 10.846 C 16.996,10.379 16.996,10.001 16.475,10.002 Z"/>
 <path style="opacity:0.2;fill:#ffffff" d="M 5,2 C 4.446,2 4,2.446 4,3 V 3.5 C 4,2.946 4.446,2.5 5,2.5 H 18 C 18.554,2.5 19,2.946 19,3.5 V 3 C 19,2.446 18.554,2 18,2 Z"/>
</svg>
